X:418
T:Reel 418
M:4/4
K:Dmaj
L:1/8
 (3ABc |d2AG FDFA|BcdB A2AG|FGAB AGFE|FGAB B2Ac|dcdB AGFD|EFAF E2 (3ABc |dcdB AF (3DFF |B2EF E2| (3ABc |d2dc dfed|edcB A2FA|dedc dfed| (3cde AB A2FA|dcdB cdec|defd edBc|dcdc Bgec|dB (3cBA BGFG|
